images/sprite-modal.svg

<svg aria-hidden="true" style="position: absolute; width: 0; height: 0; overflow: hidden;" version="1.1" xmlns="http://www.w3.org/2000/svg" xmlns:xlink="http://www.w3.org/1999/xlink">
<defs>
<symbol id="icon-close-modal" viewBox="0 0 32 32">
<path d="M32 3.2l-3.2-3.2-12.8 12.8-12.8-12.8-3.2 3.2 12.8 12.8-12.8 12.8 3.2 3.2 12.8-12.8 12.8 12.8 3.2-3.2-12.8-12.8 12.8-12.8z"></path>
</symbol>
<symbol id="icon-email-modal" viewBox="0 0 43 32">
<path d="M37.333 0h-32c-2.187 0-4 1.813-4 4v24c0 2.187 1.813 4 4 4h32c2.187 0 4-1.813 4-4v-24c0-2.187-1.813-4-4-4zM36.533 8.507l-14.133 8.827c-0.303 0.19-0.672 0.303-1.067 0.303s-0.764-0.113-1.075-0.308l0.008 0.005-14.133-8.8c-0.546-0.292-0.911-0.858-0.911-1.51 0-0.943 0.764-1.707 1.707-1.707 0.383 0 0.737 0.126 1.022 0.339l-0.004-0.003 13.387 8.347 13.413-8.373c0.289-0.233 0.661-0.373 1.066-0.373 0.943 0 1.707 0.764 1.707 1.707 0 0.681-0.399 1.268-0.975 1.542l-0.010 0.004z"></path>
</symbol>
<symbol id="icon-person-modal" viewBox="0 0 32 32">
<path d="M16 16c4.418 0 8-3.582 8-8s-3.582-8-8-8v0c-4.418 0-8 3.582-8 8s3.582 8 8 8v0zM16 20c-5.333 0-16 2.667-16 8v2c0 1.093 0.907 2 2 2h28c1.093 0 2-0.907 2-2v-2c0-5.333-10.667-8-16-8z"></path>
</symbol>
<symbol id="icon-phone-modal" viewBox="0 0 32 32">
<path d="M27.429 20.846l-4.206-0.457c-1.006-0.137-2.011 0.229-2.72 0.914l-3.040 3.063c-4.718-2.435-8.468-6.185-10.838-10.764l-0.065-0.139 3.063-3.063c0.709-0.709 1.051-1.714 0.937-2.72l-0.457-4.16c-0.201-1.656-1.598-2.926-3.291-2.926-0.016 0-0.032 0-0.048 0l0.002-0h-2.834c-1.874 0-3.429 1.554-3.314 3.429 0.92 14.132 12.154 25.366 26.202 26.281l0.083 0.004c1.874 0.114 3.429-1.44 3.429-3.314v-2.857c0-1.691-1.234-3.086-2.903-3.291z"></path>
</symbol>
</defs>
</svg>

<svg aria-hidden="true" style="position:absolute;width:0;height:0" xmlns="http://www.w3.org/2000/svg" overflow="hidden"><defs><symbol id="icon-close-modal" viewBox="0 0 32 32"><path d="M32 3.2L28.8 0 16 12.8 3.2 0 0 3.2 12.8 16 0 28.8 3.2 32 16 19.2 28.8 32l3.2-3.2L19.2 16 32 3.2z"/></symbol><symbol id="icon-email-modal" viewBox="0 0 43 32"><path d="M37.33 0h-32c-2.18 0-4 1.81-4 4v24c0 2.19 1.82 4 4 4h32c2.19 0 4-1.81 4-4V4c0-2.19-1.81-4-4-4zm-.8 8.5L22.4 17.34a2.01 2.01 0 01-2.14 0L6.14 8.53a1.7 1.7 0 111.82-2.87L21.33 14l13.42-8.37a1.7 1.7 0 111.8 2.88h-.02z"/></symbol><symbol id="icon-person-modal" viewBox="0 0 32 32"><path d="M16 16a8 8 0 000-16 8 8 0 000 16zm0 4c-5.33 0-16 2.67-16 8v2c0 1.1.9 2 2 2h28a2 2 0 002-2v-2c0-5.33-10.67-8-16-8z"/></symbol><symbol id="icon-phone-modal" viewBox="0 0 32 32"><path d="M27.43 20.85l-4.2-.46a3.3 3.3 0 00-2.73.91l-3.04 3.07A25.08 25.08 0 016.63 13.6l-.07-.14 3.06-3.06c.71-.7 1.05-1.71.94-2.72l-.46-4.16A3.32 3.32 0 006.81.59H3.93A3.29 3.29 0 00.62 4.02a28.14 28.14 0 0026.2 26.28h.08a3.29 3.29 0 003.43-3.3v-2.86a3.3 3.3 0 00-2.9-3.3z"/></symbol></defs></svg>
